icons/arm.svg

<svg width="48" height="48" viewBox="0 0 48 48" fill="none" xmlns="http://www.w3.org/2000/svg">
<path fill-rule="evenodd" clip-rule="evenodd" d="M5 26.0001C4.44772 26.0001 4 26.4478 4 27.0001L4 37.0001C4 37.5523 4.44772 38.0001 5 38.0001H13.0527C14.4499 38.0001 15.8381 37.7748 17.1636 37.3329L21.1623 36.0001H22.3431C23.6692 36.0001 24.941 35.4733 25.8787 34.5356L26.562 33.8523L28.0731 33.2479C30.4052 32.315 32.4171 30.7266 33.8656 28.6745L37.6953 23.249L42.5145 20.3575C42.7727 20.2026 42.9474 19.9396 42.9899 19.6415L43.9899 12.6415C44.0416 12.28 43.8921 11.9191 43.6 11.7001L43.2237 11.4178C41.8844 10.4134 39.9822 10.6994 38.9975 12.0533L38.5667 12.6456C38.4119 12.4205 38.2238 12.2133 38.0032 12.0313L37.6364 11.7287C37.4298 11.5582 37.1635 11.4778 36.8971 11.5054C36.6307 11.5329 36.3864 11.6662 36.2191 11.8754L33.0957 15.7797C32.3864 16.6663 32 17.7678 32 18.9032V20.2925L28.1249 21.6602C25.4143 22.6169 23.099 24.4443 21.539 26.854L19.6757 26.3882C18.6445 26.1304 17.5856 26.0001 16.5227 26.0001L5 26.0001ZM36.9028 14.9336L36.1913 15.9119C35.8664 16.3585 35.9652 16.9839 36.4118 17.3088C36.8585 17.6336 37.4839 17.5349 37.8087 17.0882L38.5202 16.1099C38.5201 16.1101 38.5204 16.1097 38.5202 16.1099L40.615 13.2297C40.9197 12.8106 41.4881 12.6985 41.9252 12.9526L41.0774 18.8874L36.4855 21.6426C36.3662 21.7141 36.2632 21.8098 36.183 21.9234L32.2316 27.5212C31.006 29.2575 29.3036 30.6016 27.3303 31.3909L25.6286 32.0716C25.5029 32.1219 25.3887 32.1972 25.2929 32.2929L24.4645 33.1214C23.9019 33.684 23.1388 34.0001 22.3431 34.0001H21C20.8925 34.0001 20.7857 34.0174 20.6838 34.0514L16.5312 35.4356C15.4095 35.8094 14.235 36.0001 13.0527 36.0001H6L6 28.0001H16.5227C17.4221 28.0001 18.3181 28.1104 19.1906 28.3285L21.7575 28.9702C22.1779 29.0753 22.6183 28.8976 22.848 28.5301L23.1236 28.0891C24.4437 25.9769 26.4417 24.3752 28.7906 23.5462L33.3328 21.943C33.7326 21.8019 34 21.424 34 21.0001V18.9032C34 18.222 34.2318 17.561 34.6574 17.0291L37.047 14.0421C37.1402 14.3356 37.0965 14.6672 36.9028 14.9336Z" fill="black"/>
</svg>

<svg
  xmlns="http://www.w3.org/2000/svg"
  width="24"
  height="24"
  viewBox="0 0 24 24"
  fill="none"
  stroke="currentColor"
  stroke-width="2"
  stroke-linecap="round"
  stroke-linejoin="round"
>
  <path
    fill-rule="evenodd"
    d="M5 26a1 1 0 0 0-1 1v10a1 1 0 0 0 1 1h8.053c1.397 0 2.785-.225 4.11-.667l4-1.333h1.18a5 5 0 0 0 3.536-1.464l.683-.684 1.511-.604a13 13 0 0 0 5.793-4.573l3.83-5.426 4.819-2.891a1 1 0 0 0 .475-.716l1-7a1 1 0 0 0-.39-.942l-.376-.282a3 3 0 0 0-4.226.635l-.431.593a3 3 0 0 0-.564-.615l-.367-.302a1 1 0 0 0-1.417.146l-3.123 3.905A5 5 0 0 0 32 18.903v1.39l-3.875 1.367a13 13 0 0 0-6.586 5.194l-1.863-.466A13 13 0 0 0 16.523 26zm31.903-11.066-.712.978a1 1 0 1 0 1.618 1.176l.711-.978 2.095-2.88a1 1 0 0 1 1.31-.277l-.848 5.934-4.591 2.756a1 1 0 0 0-.303.28l-3.951 5.598a11 11 0 0 1-4.902 3.87l-1.701.68q-.19.076-.336.222l-.828.828a3 3 0 0 1-2.122.88H21a1 1 0 0 0-.316.05l-4.153 1.385a11 11 0 0 1-3.478.564H6v-8h10.523c.9 0 1.795.11 2.668.328l2.567.642a1 1 0 0 0 1.09-.44l.276-.44a11 11 0 0 1 5.667-4.544l4.542-1.603A1 1 0 0 0 34 21v-2.097a3 3 0 0 1 .657-1.874l2.39-2.987a1 1 0 0 1-.144.892"
    clip-rule="evenodd"
  />
</svg>
